dist/svg/object-based/flow_16.svg

<svg xmlns="http://www.w3.org/2000/svg" viewBox="0 0 16 16"><path d="M13 10c-1.304 0-2.403.837-2.816 2H5.816c-.038-.106-.094-.2-.142-.3l6.016-6.017c.396.197.837.317 1.31.317 1.657 0 3-1.343 3-3s-1.343-3-3-3c-1.304 0-2.403.837-2.816 2H5.816C5.403.837 4.304 0 3 0 1.343 0 0 1.343 0 3s1.343 3 3 3c1.304 0 2.403-.837 2.816-2h4.367c.03.086.078.163.116.245L4.254 10.29C3.873 10.107 3.45 10 3 10c-1.657 0-3 1.343-3 3s1.343 3 3 3c1.304 0 2.403-.837 2.816-2h4.367c.413 1.163 1.512 2 2.816 2 1.656 0 3-1.343 3-3s-1.343-3-3-3zM3 4.5c-.827 0-1.5-.673-1.5-1.5S2.173 1.5 3 1.5s1.5.673 1.5 1.5S3.827 4.5 3 4.5zm10-3c.827 0 1.5.673 1.5 1.5s-.673 1.5-1.5 1.5-1.5-.673-1.5-1.5.673-1.5 1.5-1.5zm-10 13c-.827 0-1.5-.673-1.5-1.5s.673-1.5 1.5-1.5 1.5.673 1.5 1.5-.673 1.5-1.5 1.5z"/></svg>

<?xml version="1.0" encoding="utf-8"?>
<!-- Generator: Adobe Illustrator 19.1.0, SVG Export Plug-In . SVG Version: 6.00 Build 0)  -->
<svg version="1.1" id="Icon" xmlns="http://www.w3.org/2000/svg" xmlns:xlink="http://www.w3.org/1999/xlink" x="0px" y="0px"
	 width="16px" height="16px" viewBox="0 0 16 16" enable-background="new 0 0 16 16" xml:space="preserve">
<path d="M13,10c-1.304,0-2.403,0.837-2.816,2H5.816c-0.038-0.106-0.094-0.201-0.142-0.301l6.016-6.016C12.086,5.88,12.527,6,13,6
	c1.657,0,3-1.343,3-3s-1.343-3-3-3c-1.304,0-2.403,0.837-2.816,2H5.816C5.403,0.837,4.304,0,3,0C1.343,0,0,1.343,0,3s1.343,3,3,3
	c1.304,0,2.403-0.837,2.816-2h4.367c0.031,0.086,0.078,0.163,0.116,0.245l-6.044,6.044C3.873,10.108,3.451,10,3,10
	c-1.657,0-3,1.343-3,3s1.343,3,3,3c1.304,0,2.403-0.837,2.816-2h4.367c0.413,1.163,1.512,2,2.816,2c1.657,0,3-1.343,3-3
	S14.657,10,13,10z M3,4.5C2.173,4.5,1.5,3.827,1.5,3S2.173,1.5,3,1.5S4.5,2.173,4.5,3S3.827,4.5,3,4.5z M13,1.5
	c0.827,0,1.5,0.673,1.5,1.5S13.827,4.5,13,4.5S11.5,3.827,11.5,3S12.173,1.5,13,1.5z M3,14.5c-0.827,0-1.5-0.673-1.5-1.5
	s0.673-1.5,1.5-1.5s1.5,0.673,1.5,1.5S3.827,14.5,3,14.5z"/>
</svg>
